X: 58
T:Knick-Knack
% Nottingham Music Database
S:Kevin Briggs, via EF
M:4/4
L:1/4
K:G
B/2A/2|"G"G/2F/2G/2A/2 BB|"G"G/2F/2G/2A/2 BB|"Am"d/2c/2B/2c/2 AA|\
"D7"d/2c/2B/2c/2 AA|
"G"G/2F/2G/2A/2 "f#"BB|"Em""Em"G/2F/2G/2A/2 "D""Em/d"BB|\
"C""Am/c"d/2c/2B/2c/2 "D7""D7"A/2c/2B/2A/2|"G"GB G:||:
B/2c/2|"G"d3/2c/2 Bd|"G"gg d2|"Am"d/2c/2B/2c/2 AA|"D7"d/2c/2B/2c/2 AA|
"G"d3/2c/2 Bd|"G""Em"gg d2|"C""Am"d/2c/2B/2c/2 "D7""D7"A/2c/2B/2A/2|"G"GB G:|


